public/assets/images/icons/facebook.svg

<svg width="24" height="24" viewBox="0 0 24 24" fill="none" xmlns="http://www.w3.org/2000/svg">
    <g clip-path="url(#clip0_4411_7088)">
        <path d="M20.7667 0H3.23502C1.44894 0 0.000976562 1.44791 0.000976562 3.23405V20.7658C0.000976562 22.552 1.44889 23.9999 3.23502 23.9999H11.8816L11.8963 15.4236H9.66819C9.37863 15.4236 9.14361 15.1895 9.1425 14.8999L9.13181 12.1354C9.13069 11.8443 9.36642 11.6077 9.65756 11.6077H11.8816V8.93651C11.8816 5.83661 13.7748 4.14869 16.5401 4.14869H18.8093C19.0996 4.14869 19.335 4.38406 19.335 4.67444V7.00547C19.335 7.29573 19.0998 7.53104 18.8096 7.53122L17.417 7.53187C15.9132 7.53187 15.622 8.24648 15.622 9.29522V11.6078H18.9265C19.2413 11.6078 19.4856 11.8827 19.4485 12.1954L19.1209 14.9599C19.0895 15.2244 18.8652 15.4237 18.5988 15.4237H15.6367L15.622 24H20.7668C22.5529 24 24.0008 22.5521 24.0008 20.766V3.23405C24.0007 1.44791 22.5528 0 20.7667 0Z" fill="white"/>
    </g>
    <defs>
        <clipPath id="clip0_4411_7088">
            <rect width="24" height="24" fill="white"/>
        </clipPath>
    </defs>
</svg>

<svg width="24" height="24" fill="none" xmlns="http://www.w3.org/2000/svg"><g clip-path="url(#clip0_4411_7088)"><path d="M20.767 0H3.235A3.234 3.234 0 00.001 3.234v17.532A3.234 3.234 0 003.235 24h8.647l.014-8.576H9.668a.526.526 0 01-.525-.524l-.011-2.765a.526.526 0 01.526-.527h2.224V8.937c0-3.1 1.893-4.788 4.658-4.788h2.27c.29 0 .525.235.525.525v2.331c0 .29-.235.526-.525.526h-1.393c-1.504 0-1.795.715-1.795 1.764v2.313h3.305c.314 0 .559.275.521.587l-.327 2.765a.526.526 0 01-.522.464h-2.962L15.622 24h5.145A3.234 3.234 0 0024 20.766V3.234A3.234 3.234 0 0020.767 0z" fill="#fff"/></g><defs><clipPath id="clip0_4411_7088"><path fill="#fff" d="M0 0h24v24H0z"/></clipPath></defs></svg>
